X:1
T:12 Lieder, 1786   (alternative title: Zwölf Lieder auf ihrer Reise in Musik gesetzt)
T:Vaterlandslied
T:9. Vaterlandslied
T:Maria Theresia von Paradis
T:12 Lieder, 1786 (Zwölf Lieder auf ihrer Reise in Musik gesetzt) 
T:Matthias Claudius
T:NOTE TO TRANSCRIBER: Please transcribe the notes as shown in the IMSLP edition, into voice and piano Soprano clef stave shown on this template. During review, any corrections will be made in the Soprano clef staves.  The reviewer will then change the Soprano clefs to normal Treble clefs before the score is published to the OpenScore Lieder Corpus. For the text of the lyrics, please check on Lieder.net: https://www.lieder.net/lieder/get_text.html?TextId=26513 
T:Creative Commons copyright waiver (CC0 1.0 Universal)
T:Creative Commons copyright waiver (CC0 1.0 Universal)
T:Creative Commons copyright waiver (CC0 1.0 Universal)
T:Creative Commons copyright waiver (CC0 1.0 Universal)
T:Creative Commons copyright waiver (CC0 1.0 Universal)
T:Creative Commons copyright waiver (CC0 1.0 Universal)
T:Creative Commons copyright waiver (CC0 1.0 Universal)
C:Maria Theresia von Paradis
Z:Matthias Claudius
Z:Creative Commons copyright waiver (CC0 1.0 Universal)
%%score 1 2
L:1/8
M:2/4
K:C
V:1 alto1 nm="Canto\nVoice"
V:2 bass nm="Cembalo\nHarpsichord"
V:1
"^A3""^Soprano clef" A,"^B3"B,"^C4" C"^D4"D |"^E4" E"^F4"F"^G4" G"^A4"A | %2
w: ||
"^B4" B"^C5"c"^D5" d"^E5"e |"^F5" f"^G5"g"^A5" a z |[K:G][M:6/8][Q:1/4=172]"^Vivace" D | %5
w: ||Ich|
 G>F G A>G A | B3 G z B, | C>B, C ^C>B, C | D>F A d2 z | z6 | z2 z z2 A | A>G A B2 G | E2 A F2 G | %13
w: bin * ein deut- * scher|Jüng- ling, mein|Haar * ist kraus, * breit|mei- * ne Brust.||Mein|Va- * ter war ein|ed- ler Mann, ich|
 E3 F3 | G2 z4 | z6 | z6 | z6 | z6!fine! ||[K:D][M:2/4][Q:1/4=92]"^Andantino" z4 | z4 | z4 | z4 | %23
w: bin es|auch.|||||||||
 z4 | z4 | z4 | z4 | z4 | z4 | z4 | z4 | z4 | z4 | z4 | z4 | z4 | z4 | z4 | z4 | z4 | z4 | z4 | %42
w: |||||||||||||||||||
 z4 | z4 | z4 | z2 !fermata!z[Q:1/4=172]"^Tempo I" D ||[K:G][M:6/8] z6 | z6 | z6 | z6 | z6 | z6 | %52
w: |||Ich|||||||
 z6 | z6 | z6 | z6 | z6 | z6 | z6 | z2 z z2[Q:1/4=92]"^Andantino" d ||[K:Bb][M:2/4] z4 | z4 | z4 | %63
w: |||||||Ich||||
 z4 | z4 | z4 | z4 | z4 | z2[Q:1/4=144]"^Allegro" B3/2 B/ | z4 | z4 | z4 | z4 | z4 | z4 | z4 | z4 | %77
w: |||||Wer nicht|||||||||
 z4 | z4 | z4 | z4 | z4 | z4 | z4 | z4 | z4 | z2 z[Q:1/4=92]"^Andantino" d | z4 | z4 | z4 | z4 | %91
w: |||||||||Denn|||||
 z4 | z4 | z4 | z4 | z4 | d2"^The last verse is sung to the melody of the first verse" z2!D.C.! |] %97
w: |||||seyn!|
V:2
"^------  These four measures can be deleted before the score is uploaded for review  ------" z4 | %1
 z4 | z4 | z4 |[K:G][M:6/8] z | z6 | z6 | z6 | z6 | z6 | z6 | z6 | z6 | z6 | z6 | z6 | z6 | z6 | %18
 z6 ||[K:D][M:2/4] z4 | z4 | z4 | z4 | z4 | z4 | z4 | z4 | z4 | z4 | z4 | z4 | z4 | z4 | z4 | z4 | %35
 z4 | z4 | z4 | z4 | z4 | z4 | z4 | z4 | z4 | z4 | z4 ||[K:G][M:6/8] z6 | z6 | z6 | z6 | z6 | z6 | %52
 z6 | z6 | z6 | z6 | z6 | z6 | z6 | z6 ||[K:Bb][M:2/4] z4 | z4 | z4 | z4 | z4 | z4 | z4 | z4 | z4 | %69
 z4 | z4 | z4 | z4 | z4 | z4 | z4 | z4 | z4 | z4 | z4 | z4 | z4 | z4 | z4 | z4 | z4 | z4 | z4 | %88
 z4 | z4 | z4 | z4 | z4 | z4 | z4 | z4 | z4 |] %97

